X:1
T:St. Saviour (Gaul), 77.77.77.77.7
T:St. Saviour (Gaul), 77.77.77.77.7
T:Alfred Robert Gaul (1837-1913)
T:Public Domain Courtesy of the Cyber Hymnal™
C:Alfred Robert Gaul (1837-1913)
Z:Public Domain
Z:Courtesy of the Cyber Hymnal™
%%score ( 1 2 ) ( 3 4 )
L:1/8
Q:1/4=107
M:4/4
K:A
V:1 treble 
V:2 treble 
V:3 bass 
V:4 bass 
V:1
 [CE]2 [EA]2 [DF]2 [DF]2 | [DE]2 [CE]2 [DF]4 | [DF]2 [FB]2 [FA]2 [EG]2 | [EF]2 [^DF]2 [EG]4 | %4
 G2 [Gc]2 [Gc]2 [GB]2 | G2 [Gc]2 [GB]4 | [EB]2 [Ge]2 [F^d]2 [Ee]2 | [Gc]2 c2 [^DB]4 | %8
 [Cc]2 [FA]2 [EG]2 [FA]2 | [^DG]2 [FG]2 [EG]4 | [Cc]2 [FA]2 [EG]2 [EA]2 | [EF]2 [^DF]2 [EG]4 | %12
 E2 [EA]2 [DF]2 [DF]2 | [DE]2 [CE]2 [DF]4 | [Fd]2 [FB]2 [EB]2 [EA]2 | [EA]2 [EG]2 [EA]4 | %16
 [Dd]2 [FB]2 [EB]2 [EA]2 | [EA]2 [EG]2 [EA]4 |] %18
V:2
 x8 | x8 | x8 | x8 | G2 x6 | G2 x6 | x8 | x2 (FE) x4 | x8 | x8 | x8 | x8 | E2 x6 | x8 | x8 | x8 | %16
 x8 | x8 |] %18
V:3
 [A,,A,]2 [C,A,]2 [D,A,]2 [B,,B,]2 | [G,,B,]2 [A,,A,]2 [D,A,]4 | [D,A,]2 [B,,D]2 [F,C]2 [C,C]2 | %3
 [A,,C]2 [B,,B,]2 [E,B,]4 | [C,C]2 [E,C]2 [G,^D]2 [G,D]2 | [C,E]2 [E,C]2 [G,^D]4 | %6
 [G,E]2 [E,B,]2 B,2 [G,B,]2 | [E,B,]2 [F,^A,]2 [B,,B,]4 | [F,A,]2 [A,,C]2 [C,C]2 [F,C]2 | %9
 [G,C]2 [G,,^B,]2 [C,C]4 | [F,A,]2 [A,,C]2 [C,C]2 [A,,C]2 | [B,,B,]2 [B,,B,]2 [E,B,]4 | %12
 [A,,C]2 [C,A,]2 [D,A,]2 [B,,B,]2 | [G,,B,]2 [A,,A,]2 [D,A,]4 | D2 z [G,,D]2 [A,,C]2 x | %15
 [E,B,]2 [D,B,]2 [C,A,]4 | B,2 z [G,,D]2 [A,,C]2 x | [E,B,]2 [E,B,]2 [A,,C]4 |] %18
V:4
 x8 | x8 | x8 | x8 | x8 | x8 | x4 B,2 x2 | x8 | x8 | x8 | x8 | x8 | x8 | x8 | B,,3 (D2 A,,) x2 | %15
 x8 | B,,3 (D2 A,,) x2 | x8 |] %18

